X:1
T:Title
%%score { 1 | 2 }
L:1/8
M:4/4
K:G
V:1 treble nm="Grand Piano"
V:2 treble 
V:1
 z4 z2[Q:1/4=100] D2 | G2 GG B2 AB | A G3- G2 B2 | d2 dd [Ge]2 [Gd][GB] | [FA]6 GB | d2 dd e2 dB | %6
 A G3- G2 GA | [DGB]2 [B,G][CFA] [DGB]2 [CFA][CFA] | [G,B,G]6 z2 | d3 B e .d3 | %10
 [B,DG]3 [DB] [DA] .[DG]3 | d3 B edGB | [FA]6 z2 | d3 B e .d3 | [B,DG]3 [DB] [DA][G,DG] z [G,DG] | %15
 [B,DG]3 [B,DG] [DGB][B,G][DGB][CFA] |[M:3/4] [B,G]6 |] %17
V:2
 z4 z2 [G,B,]2 | [G,B,D]2 [G,B,D][G,B,D] [G,DG]2 [G,CF][G,DG] | %2
 [F,CD] [G,B,D]3- [G,B,D]2[K:treble] [G,D]2 | %3
 [G,B,G]2 [G,B,G][G,B,G][K:bass] [C,G,]2 [B,,G,][D,G,] | [D,D]6 [G,B,][K:treble][G,DG] | %5
 [G,B,G]2 [G,B,G][G,B,G] [G,CG]2 [G,B,G][G,DG] | [G,CD] [G,B,D]3- [G,B,D]2 [G,B,D][G,CD] | %7
 D,2 D,D, D,2 D,D, | G,,6 z2 | [G,B,G]3 [G,DG] [G,CG] .[G,B,G]3 | G,,3 [D,G,] [C,F,] .[B,,G,]3 | %11
 [G,B,G]3 [G,DG] [G,CG][G,B,G][G,B,][G,DG] | [D,D]6 z2 | [G,B,G]3 [G,DG] [G,CG] .[G,B,G]3 | %14
 G,,3 [D,G,] [C,F,]B,, z B,, | D,3 D, D,D,D,D, |[M:3/4] G,6 |] %17

